public/avatar/item0/13.svg

<svg xmlns:xlink="http://www.w3.org/1999/xlink" height="58.65" width="49.15" xmlns="http://www.w3.org/2000/svg"><use height="36.6" transform="translate(9.05 20.2)" width="30" xlink:href="#a"/><defs><g id="a"><path d="M13.65 16.1q1.65 0 1.2 3.15 0 1.65-.6 3.35v.35q0 1.45-3.3 4.25-.95.85-.4 4.15-1.2 4.95-4.4 6.5-1.75.85-5.85.85-8.95 0-10.55-3.5-.55-1.15-.3-2.8l.35-2.05q0-1.05-1.65-2.45-1.8-1.55-2-2.25-1.2-3.95-1.2-4.9 0-1.4 1.25-1.4 1.2 0 2.1 4.55.2 1.05 1.65 2.25 1.7 1.4 2.05 2.1.4.85.35 2.3L-7.7 33q0 3.2 8.05 3.2 5.55 0 6.75-3.2 1.05-2.75 1-3.9-.1-1.85 1.65-4.25v-.15q2.45-3.25 2.6-4.4l-.25-2.35q.1-1.85 1.55-1.85" fill="#282639" fill-opacity=".302" fill-rule="evenodd" transform="translate(15.05 -2.1)"/><path d="M13.95 17.4q0 5.05-1.75 7.3l-2.75 1.75q-.55.25-.55 4.05 0 3.45-2.25 4.75l-6.75 1.5q-2.75.75-6.8-1.5-2.25-1.3-2.25-4.55 0-3.75-.5-4l-2.75-2q-1.75-2.05-2-7.05Q-14.4 2.6-.35 2.6h.25q14.05-.25 14.05 14.8" fill="#e5dcbc" fill-rule="evenodd" transform="translate(15.05 -2.1)"/><path d="M13.95 17.4Q13.95 2.35-.1 2.6h-.25q-14.05 0-14.05 15.05.25 5 2 7.05l2.75 2q.5.25.5 4 0 3.25 2.25 4.55 4.05 2.25 6.8 1.5l6.75-1.5q2.25-1.3 2.25-4.75 0-3.8.55-4.05l2.75-1.75q1.75-2.25 1.75-7.3Z" fill="none" stroke="#575246" stroke-linecap="round" stroke-linejoin="round" transform="translate(15.05 -2.1)"/><path d="M-2.35 23.95q0-3.05 2-3.05l-.5 3.8q-.3 1.25-1.25-.25l-.25-.5m4.5 0-.25.5q-.75 2.25-1.25.25l-.5-3.8q2 0 2 3.05" fill="#3b372c" fill-rule="evenodd" transform="translate(15.05 -2.1)"/><path d="M7.65 17.65Q3.15 19.7.9 16.4l-.5-2.75q.25-.75 3-2 5.75-1.5 8.25 1 .25.25-1.45 3l-2.55 2" fill="#9c9075" fill-rule="evenodd" transform="translate(15.05 -2.1)"/><path d="M9.65 18.65q-3.45 3.05-6.5.8Q.4 17.4.9 15.15q1-3.75 6.75-2.75 1.75.25 2.55 2.75.5 2.5-.55 3.5" fill="#3b372c" fill-rule="evenodd" transform="translate(15.05 -2.1)"/><path d="m-9.15 17.65-2.5-2q-1.5-2.5-.8-3.25 2.05-2 7.6-.75 2.75 1.25 3 2l-.5 2.75q-2.5 3.3-6.8 1.25" fill="#9c9075" fill-rule="evenodd" transform="translate(15.05 -2.1)"/><path d="M-11.15 18.65q-1.3-1-.5-3.5.5-2.5 2.25-2.75 5.75-1 6.8 2.75.5 2.25-2 4.3-3.05 2.25-6.55-.8" fill="#3b372c" fill-rule="evenodd" transform="translate(15.05 -2.1)"/><path d="m-7.65 7.6 7.05.55 7.25-.55Q1.4 9.35-.6 9.35q-1.5 0-7.05-1.75m-4.2 14.2q.5.85 2.2 1.35l2.55.8q1.2.75 1.2 4.25l-2.5-3.25q-3.25-2.3-3.25-2.75l-.2-.4m23.5-.1-.2.5-1.55 1.5-1.7 1.25q-1.55 1-2.55 3.25 0-3.5 1.25-4.25l2.5-.8q1.8-.5 2.25-1.45m-13.75-.8.25-1.7 1.5-3.3.25 3.8q-.5.45-1.3.45-.25 0-.7.75M.65 31.2l-1-.25.5-2 .5 2.25m0 .25-.5 1.75-.5-1.5 1-.25" fill="#9c9075" fill-rule="evenodd" transform="translate(15.05 -2.1)"/><path d="m4.65 30.95 1-.25.75-1.75.25-1q.5 1.75.25 3.25l-.95 2.25q.25-1.75-.3-2.25l-1-.25m-9.5 0-1.05.25-.25 2.25-.75-2.25q-.45-1.5 0-3.25l.25 1 1 1.75.8.25" fill="#706754" fill-rule="evenodd" transform="translate(15.05 -2.1)"/><path d="M3.15 31.2h.75l-.25 2.25-.5-2.25m0-.25.5-3 .25 3h-.75m-6.25.25-.3 2.25-.5-2.25h.8m0-.25h-.8l.5-3 .3 3" fill="#9c9075" fill-rule="evenodd" transform="translate(15.05 -2.1)"/><path d="M3.4 9.85Q2.15 9.6 4.9 8.9l3.55-.5q3 1.2-2.05 1.75l-3-.3M5.15 4.1q7.3 3.5.5 2.5-2.5-.2-2.5-1.75.25-1.25 2-.75m4 16.05q3.8-.25.25 1.8-2 .7-7-.5l6.75-1.3m-19.3 0 6.75 1.3q-5.25 1.2-7 .5-3.5-2.05.25-1.8M.9 28.45l.25.25v-.25q1-.75 1.25 0 .25.5 0 2.25-1 .25-1.25-.45-.25-.55-.25-1.8m.25 5.5-.25-1.2q.25-.8 1.5-.8.5.8.25 1.25 0 .75-1 .5l-.5.25M-1.4 30.5q-.95 0-1.2-.8-.25-1.5 0-1.75h.95l.5.75v2l-.25-.2m-.95 3.45q-.5-.95-.25-1.45.75-.8 1.45-.55.55 1.05.3 1.5 0 .5-1.25.5h-.25m6.75-5.5h.75v1.8H4.4v-1.8m.5 3q1.3 1.75 0 1.75-.5 0-.75-.95 0-.3.75-.8m-9.75-3q.45 0 .7 1 0 .8-.7.8-.55 0-.8-.8 0-.5.55-1h.25m0 3q.45.25.7 1.05 0 .95-.7.95-.55 0-.8-.95 0-.55.8-1.05" fill="#fff7e5" fill-rule="evenodd" transform="translate(15.05 -2.1)"/><path d="m.15 30.95 6.5-.25q-3.75 1-6.5 1-3 0-6.55-1l6.55.25" fill="#29261f" fill-rule="evenodd" transform="translate(15.05 -2.1)"/><path d="M-4.4 16.45q0 2.75-2.7 2.75-3.05 0-3-2.75-.05-3.05 3-3.05 2.7 0 2.7 3.05" fill="#ffebbf" fill-rule="evenodd" transform="translate(15.05 -2.1)"/><path d="M-6.15 16.4q-.5 1-.95 1-.8 0-1.3-1 0-1.25 1.3-1.25.95.5.95 1.25" fill-rule="evenodd" transform="translate(15.05 -2.1)"/><path d="M-9.15 18.15q2.05.5 3.5-.75 1.25-1.25 1.25-2 .5 2.5-1.5 3.5t-3.25-.75" fill="#ada082" fill-rule="evenodd" transform="translate(15.05 -2.1)"/></g></defs></svg>

<?xml version="1.0" encoding="UTF-8" standalone="no"?>
<svg xmlns:xlink="http://www.w3.org/1999/xlink" height="58.65px" width="49.15px" xmlns="http://www.w3.org/2000/svg">
  <g transform="matrix(1.0, 0.0, 0.0, 1.0, 24.1, 18.1)">
    <use height="36.6" transform="matrix(1.0, 0.0, 0.0, 1.0, -15.05, 2.1)" width="30.0" xlink:href="#shape0"/>
  </g>
  <defs>
    <g id="shape0" transform="matrix(1.0, 0.0, 0.0, 1.0, 15.05, -2.1)">
      <path d="M13.65 16.1 Q15.3 16.1 14.85 19.25 14.85 20.9 14.25 22.6 L14.25 22.95 Q14.25 24.4 10.95 27.2 10.0 28.05 10.55 31.35 9.35 36.3 6.15 37.85 4.4 38.7 0.3 38.7 -8.65 38.7 -10.25 35.2 -10.8 34.05 -10.55 32.4 L-10.2 30.35 Q-10.2 29.3 -11.85 27.9 -13.65 26.35 -13.85 25.65 -15.05 21.7 -15.05 20.75 -15.05 19.35 -13.8 19.35 -12.6 19.35 -11.7 23.9 -11.5 24.95 -10.05 26.15 -8.35 27.55 -8.0 28.25 -7.6 29.1 -7.65 30.55 L-7.7 33.0 Q-7.7 36.2 0.35 36.2 5.9 36.2 7.1 33.0 8.15 30.25 8.1 29.1 8.0 27.25 9.75 24.85 L9.75 24.7 Q12.2 21.45 12.35 20.3 L12.1 17.95 Q12.2 16.1 13.65 16.1" fill="#282639" fill-opacity="0.3019608" fill-rule="evenodd" stroke="none"/>
      <path d="M13.95 17.4 Q13.95 22.45 12.2 24.7 L9.45 26.45 Q8.9 26.7 8.9 30.5 8.9 33.95 6.65 35.25 L-0.1 36.75 Q-2.85 37.5 -6.9 35.25 -9.15 33.95 -9.15 30.7 -9.15 26.95 -9.65 26.7 L-12.4 24.7 Q-14.15 22.65 -14.4 17.65 -14.4 2.6 -0.35 2.6 L-0.1 2.6 Q13.95 2.35 13.95 17.4" fill="#e5dcbc" fill-rule="evenodd" stroke="none"/>
      <path d="M13.95 17.4 Q13.95 2.35 -0.1 2.6 L-0.35 2.6 Q-14.4 2.6 -14.4 17.65 -14.15 22.65 -12.4 24.7 L-9.65 26.7 Q-9.15 26.95 -9.15 30.7 -9.15 33.95 -6.9 35.25 -2.85 37.5 -0.1 36.75 L6.65 35.25 Q8.9 33.95 8.9 30.5 8.9 26.7 9.45 26.45 L12.2 24.7 Q13.95 22.45 13.95 17.4 Z" fill="none" stroke="#575246" stroke-linecap="round" stroke-linejoin="round" stroke-width="1.0"/>
      <path d="M-2.35 23.95 Q-2.35 20.9 -0.35 20.9 L-0.85 24.7 Q-1.15 25.95 -2.1 24.45 L-2.35 23.95" fill="#3b372c" fill-rule="evenodd" stroke="none"/>
      <path d="M2.15 23.95 L1.9 24.45 Q1.15 26.7 0.65 24.7 L0.15 20.9 Q2.15 20.9 2.15 23.95" fill="#3b372c" fill-rule="evenodd" stroke="none"/>
      <path d="M7.65 17.65 Q3.15 19.7 0.9 16.4 L0.4 13.65 Q0.65 12.9 3.4 11.65 9.15 10.15 11.65 12.65 11.9 12.9 10.2 15.65 L7.65 17.65" fill="#9c9075" fill-rule="evenodd" stroke="none"/>
      <path d="M9.65 18.65 Q6.2 21.7 3.15 19.45 0.4 17.4 0.9 15.15 1.9 11.4 7.65 12.4 9.4 12.65 10.2 15.15 10.7 17.65 9.65 18.65" fill="#3b372c" fill-rule="evenodd" stroke="none"/>
      <path d="M-9.15 17.65 L-11.65 15.65 Q-13.15 13.15 -12.45 12.4 -10.4 10.4 -4.85 11.65 -2.1 12.9 -1.85 13.65 L-2.35 16.4 Q-4.85 19.7 -9.15 17.65" fill="#9c9075" fill-rule="evenodd" stroke="none"/>
      <path d="M-11.15 18.65 Q-12.45 17.65 -11.65 15.15 -11.15 12.65 -9.4 12.4 -3.65 11.4 -2.6 15.15 -2.1 17.4 -4.6 19.45 -7.65 21.7 -11.15 18.65" fill="#3b372c" fill-rule="evenodd" stroke="none"/>
      <path d="M-7.65 7.6 L-0.6 8.15 6.65 7.6 Q1.4 9.35 -0.6 9.35 -2.1 9.35 -7.65 7.6" fill="#9c9075" fill-rule="evenodd" stroke="none"/>
      <path d="M-11.85 21.8 Q-11.35 22.65 -9.65 23.15 L-7.1 23.95 Q-5.9 24.7 -5.9 28.2 L-8.4 24.95 Q-11.65 22.65 -11.65 22.2 L-11.85 21.8" fill="#9c9075" fill-rule="evenodd" stroke="none"/>
      <path d="M11.65 21.7 L11.45 22.2 9.9 23.7 8.2 24.95 Q6.65 25.95 5.65 28.2 5.65 24.7 6.9 23.95 L9.4 23.15 Q11.2 22.65 11.65 21.7" fill="#9c9075" fill-rule="evenodd" stroke="none"/>
      <path d="M-2.1 20.9 L-1.85 19.2 -0.35 15.9 -0.1 19.7 Q-0.6 20.15 -1.4 20.15 -1.65 20.15 -2.1 20.9" fill="#9c9075" fill-rule="evenodd" stroke="none"/>
      <path d="M0.65 31.2 L-0.35 30.95 0.15 28.95 0.65 31.2" fill="#9c9075" fill-rule="evenodd" stroke="none"/>
      <path d="M0.65 31.45 L0.15 33.2 -0.35 31.7 0.65 31.45" fill="#9c9075" fill-rule="evenodd" stroke="none"/>
      <path d="M4.65 30.95 L5.65 30.7 6.4 28.95 6.65 27.95 Q7.15 29.7 6.9 31.2 L5.95 33.45 Q6.2 31.7 5.65 31.2 L4.65 30.95" fill="#706754" fill-rule="evenodd" stroke="none"/>
      <path d="M-4.85 30.95 L-5.9 31.2 -6.15 33.45 -6.9 31.2 Q-7.35 29.7 -6.9 27.95 L-6.65 28.95 -5.65 30.7 -4.85 30.95" fill="#706754" fill-rule="evenodd" stroke="none"/>
      <path d="M3.15 31.2 L3.9 31.2 3.65 33.45 3.15 31.2" fill="#9c9075" fill-rule="evenodd" stroke="none"/>
      <path d="M3.15 30.95 L3.65 27.95 3.9 30.95 3.15 30.95" fill="#9c9075" fill-rule="evenodd" stroke="none"/>
      <path d="M-3.1 31.2 L-3.4 33.45 -3.9 31.2 -3.1 31.2" fill="#9c9075" fill-rule="evenodd" stroke="none"/>
      <path d="M-3.1 30.95 L-3.9 30.95 -3.4 27.95 -3.1 30.95" fill="#9c9075" fill-rule="evenodd" stroke="none"/>
      <path d="M3.4 9.85 Q2.15 9.6 4.9 8.9 L8.45 8.4 Q11.45 9.6 6.4 10.15 L3.4 9.85" fill="#fff7e5" fill-rule="evenodd" stroke="none"/>
      <path d="M5.15 4.1 Q12.45 7.6 5.65 6.6 3.15 6.4 3.15 4.85 3.4 3.6 5.15 4.1" fill="#fff7e5" fill-rule="evenodd" stroke="none"/>
      <path d="M9.15 20.15 Q12.95 19.9 9.4 21.95 7.4 22.65 2.4 21.45 L9.15 20.15" fill="#fff7e5" fill-rule="evenodd" stroke="none"/>
      <path d="M-10.15 20.15 L-3.4 21.45 Q-8.65 22.65 -10.4 21.95 -13.9 19.9 -10.15 20.15" fill="#fff7e5" fill-rule="evenodd" stroke="none"/>
      <path d="M0.9 28.45 L1.15 28.7 1.15 28.45 Q2.15 27.7 2.4 28.45 2.65 28.95 2.4 30.7 1.4 30.95 1.15 30.25 0.9 29.7 0.9 28.45" fill="#fff7e5" fill-rule="evenodd" stroke="none"/>
      <path d="M1.15 33.95 L0.9 32.75 Q1.15 31.95 2.4 31.95 2.9 32.75 2.65 33.2 2.65 33.95 1.65 33.7 L1.15 33.95" fill="#fff7e5" fill-rule="evenodd" stroke="none"/>
      <path d="M-1.4 30.5 Q-2.35 30.5 -2.6 29.7 -2.85 28.2 -2.6 27.95 L-1.65 27.95 -1.15 28.7 -1.15 30.7 -1.4 30.5" fill="#fff7e5" fill-rule="evenodd" stroke="none"/>
      <path d="M-2.35 33.95 Q-2.85 33.0 -2.6 32.5 -1.85 31.7 -1.15 31.95 -0.6 33.0 -0.85 33.45 -0.85 33.95 -2.1 33.95 L-2.35 33.95" fill="#fff7e5" fill-rule="evenodd" stroke="none"/>
      <path d="M4.4 28.45 L5.15 28.45 5.15 30.25 4.4 30.25 4.4 28.45" fill="#fff7e5" fill-rule="evenodd" stroke="none"/>
      <path d="M4.9 31.45 Q6.2 33.2 4.9 33.2 4.4 33.2 4.15 32.25 4.15 31.95 4.9 31.45" fill="#fff7e5" fill-rule="evenodd" stroke="none"/>
      <path d="M-4.85 28.45 Q-4.4 28.45 -4.15 29.45 -4.15 30.25 -4.85 30.25 -5.4 30.25 -5.65 29.45 -5.65 28.95 -5.1 28.45 L-4.85 28.45" fill="#fff7e5" fill-rule="evenodd" stroke="none"/>
      <path d="M-4.85 31.45 Q-4.4 31.7 -4.15 32.5 -4.15 33.45 -4.85 33.45 -5.4 33.45 -5.65 32.5 -5.65 31.95 -4.85 31.45" fill="#fff7e5" fill-rule="evenodd" stroke="none"/>
      <path d="M0.15 30.95 L6.65 30.7 Q2.9 31.7 0.15 31.7 -2.85 31.7 -6.4 30.7 L0.15 30.95" fill="#29261f" fill-rule="evenodd" stroke="none"/>
      <path d="M-4.4 16.45 Q-4.4 19.2 -7.1 19.2 -10.15 19.2 -10.1 16.45 -10.15 13.4 -7.1 13.4 -4.4 13.4 -4.4 16.45" fill="#ffebbf" fill-rule="evenodd" stroke="none"/>
      <path d="M-6.15 16.4 Q-6.65 17.4 -7.1 17.4 -7.9 17.4 -8.4 16.4 -8.4 15.15 -7.1 15.15 -6.15 15.65 -6.15 16.4" fill="#000000" fill-rule="evenodd" stroke="none"/>
      <path d="M-9.15 18.15 Q-7.1 18.65 -5.65 17.4 -4.4 16.15 -4.4 15.4 -3.9 17.9 -5.9 18.9 -7.9 19.9 -9.15 18.15" fill="#ada082" fill-rule="evenodd" stroke="none"/>
    </g>
  </defs>
</svg>
